X:1
T:Title
%%score { ( 1 3 ) | 2 }
L:1/8
M:6/8
K:Ab
V:1 treble nm="Grand Piano"
V:3 treble 
V:2 bass 
V:1
 z3 z2[Q:1/4=95] E | [CA]2 [CA] [EB]2 [EB] | [Ec]3- [Ec]2 e | e2 c A2 [Ec] | %4
[M:5/8] [EB]-[EB]- [EB]3 |[M:1/8] [DE] |[M:3/4] [CA]2 [CA] B2 B | c4- c[Af] | %8
 [Ae]2 [Ac] [CA]2 [DGB] | [CA]6 | [CAe]2 [Ac][Ae]/[Ae]/- [Ae][Ac] | A6 | A2 A[GB]/[GB]/- [GB][Ac] | %13
[M:5/8] [GB]-[GB]- [GB]3 |[M:1/8] E |[M:3/4] A2 A/A/ [GB]2 [GB] | %16
[M:13/16] c-<c[Ad][Ae]-<[Ae][Af]3/2 |[M:3/4] [Ae]2 [Ac][CEA]/[CEA]/- [CEA][DEB] | %18
[M:5/8] [CEA]-[CEA]- [CEA]3 |] %19
V:2
 z3 z2 E, | [A,,E,]2 [A,,E,] [E,G,]2 [E,G,] | [A,,A,]3- [A,,A,]2[K:treble] [A,CA] | %3
 [A,CA]2[K:bass] [A,E] [A,CE]2 [A,,A,] |[M:5/8] [E,G,]-[E,G,]- [E,G,]3 |[M:1/8] [E,G,] | %6
[M:3/4] [A,,E,]2 [A,,E,] [E,G,E]2 [E,G,E] | [A,E]4- [A,E][D,D] | [E,C]2 [E,A,] E,2 E, | A,,6 | %10
 A,,2 [A,,A,][A,,C]/[A,,C]/- [A,,C][A,,A,] | [D,A,]2 [D,A,] [A,,A,]3 | %12
 [A,CE]2 [A,CE][E,B,]/[E,E]/- [E,E][A,E] |[M:5/8] [E,E]E,G, z2 |[M:1/8] [G,B,] | %15
[M:3/4] [A,CE]2 [A,CE]/[A,CE]/ [E,B,]2 [E,E] | %16
[M:13/16][K:treble] [A,A]-<[A,A][K:bass][F,A,][C,A,]-<[C,A,][D,A,]3/2 | %17
[M:3/4] [E,C]2 [E,A,]E,/E,/- E,E, |[M:5/8] A,,-A,,- A,,3 |] %19
V:3
 x6 | x6 | x6 | x6 |[M:5/8] x5 |[M:1/8] x |[M:3/4] x6 | x6 | x6 | x6 | x6 | F2 F E3 | x6 | %13
[M:5/8] z G,B, B,2 |[M:1/8] x |[M:3/4] x6 |[M:13/16] x13/2 |[M:3/4] x6 |[M:5/8] x5 |] %19

